X:1
T:Joseph, lieber Joseph mein
T:Satz: Gustav Beckmann
T:Volklied
T:Joseph, lieber Joseph mein
T:Weihnachtslied, Melodie "Resonet in laudibus" aus dem 14. Jahrhundert
T:CPDL - Creative Commons Attribution Non Commercial 3.0
T:CPDL - Creative Commons Attribution Non Commercial 3.0
C:Gustav Beckmann
Z:Volklied
Z:CPDL - Creative Commons Attribution Non Commercial 3.0
%%score [ ( 1 2 ) ( 3 4 ) ]
L:1/8
Q:1/4=72
M:6/8
K:E
V:1 treble nm="Sopran\nAlt"
V:2 treble 
V:3 bass nm="Tenor\nBass"
V:4 bass 
V:1
!p!"^dolce""^Andantino" B2 G E2 G | B2 c !breath!B3 | (BB)G (EE)G | BGc !breath!B3 | %4
w: 1.~Jo- seph, lie- ber|Jo- seph mein,|hilf _ mir wie- gen mein|Kin- * de- lein!|
w: 2.~Jo- seph, lie- ber|Jo- seph mein,|hül- le mir ein _ mein|Kin- * de- lein!|
!<(! A2 A A>A!<)!B | A2 G !breath!F2 G | B2 G E2 G |!>(! F2 E !breath!F2 G!>)! | E3 E2 z | %9
w: Will es wie- gen und|sin- gen ein: "Nun|schlaf in Ruh', die|Äug- lein zu, o|Je- su!"|
w: Will es schüt- zen und|de- cken fein, dass|nicht der Wind ver-|sehr' dein Kind, Ma-|ri- a!|
!mf! B2 B!<(! B2 B | e2 d!<)! !breath!c2 B | (ee)d !breath!c3 |!f! BB^A B3 | E2 F G2 A | %14
w: O ge- be- ne-|dei- te Nacht, o|hei- li- ge Nacht,|da in die Welt|Christ, das Heil der|
w: Lob und Preis dem|rei- chen Gott, dem|rei- * chen Gott,|der sei- nen Sohn|zu uns Ar- men|
 B2 A G2 A |!>(! (F3 F2) F | E3!>)! z3 |!>(! B3 G3!>)! |!>(! B3 !breath!G3!>)! |!pp! E2!<(! F GGB | %20
w: Sün- der, sich hat|ein- * ge-|stellt!|1.\-2.~Ei- a!|Ei- a!|Lass uns wie- gen das|
w: hat ge- sandt vom|Him- * mels-|thron!||||
 A2 G!<)!!>(! F2 G | E3 E2!>)! z |!mf!!<(! B2 B B2 B | e2 d!<)! !breath!c2!f! B | e2 d c2 c | %25
w: Kin- de- lein, o|Jo- seph!|1.~Schaut he- rab, ihr|Ster- ne- lein, ihr|Ster- ne- lein, aus|
w: ||2.~Kommt he- rab, ihr|En- ge- lein, ihr|En- ge- lein, zum|
 B2 ^A !breath!B3 | E2 F G2 A |!>(! B2 A G2 A | (G2 F-) F2 G!>)! |1 E3- E2 z :|2 E3- E2 z |: %31
w: dunk- ler Nacht,|schei- net, dass das|Kind- lein süß im|Trau- * * me|lacht. _||
w: fins- tren Stall,|grüßt das Kind mit|Psal- men und mit|sü- * * ßem||Schall! _|
[M:2/2]"^(Wiederholung )""^dolcissimo" B4 GABc | B4 GABc | B2 e2- ed cB | %34
w: Su- sa, _ _ _|Su- sa, _ _ _|Su- * * * sa, _|
w: _ _ _ _ _|||
 BA[Q:1/4=66]"^ritardando" AG F3 E | !fermata!E8 :| %36
w: mei- * ne * Her- re|Christ!|
w: ||
V:2
 E2 E E2 E | E2 E E3 | (EE)E (EE)E | E2 E E3 | C2 C F>ED | F2 E D2 D | D2 D C2 E | C2 C D2 B, | %8
 B,3 B,2 x | F2 E D2 E | E2 E E2 E | (GG)F E3 | FGE D3 | C2 F E2 F | G2 F D2 E | (C3 ^B,2) B, | %16
 C3 x3 | D3 E3 | FED E3 | B,CD EEE | E2 E C2 D | B,3 B,2 x | F2 E D2 E | E2 E E2 E | G2 F E2 G | %25
 FGE D3 | C2 F E2 F | G2 F E2 E | C3- C2 D |1 B,3- B,2 x :|2 B,3- B,2 x |:[M:2/2] E4 EFED | %32
 E4 EFED | (EF G2 FG) AE | F2 E2 (E2 D)B, | B,8 :| %36
V:3
!p!"^dolce" G,2 B, C2 B, | G,2 A, !breath!G,3 | (G,A,)B, (CB,)B, | G,2 A, !breath!G,3 | %4
!<(! A,2 A, B,>B,!<)!B, | B,2 B, !breath!B,2 B, | B,2 A, G,2 B, |!>(! B,2 ^A, !breath!=A,2 A,!>)! | %8
 G,3 G,2 z |!mf! B,A,G,!<(! A,2 B, | C2 G,!<)! !breath!A,2 G, | (CC)^B, !breath!C3 | %12
!f! DCC (B,2 =A,) | G,2 B, B,CC | D2 C B,2 A, |!>(! (A,3 G,2) G, | G,3!>)! z3 |!>(! B,3 B,3!>)! | %18
!>(! B,3 E,G,!breath!C!>)! |!pp! G,2!<(! B, G,B,B, | C2 C!<)!!>(! A,2 B, | G,3 G,2!>)! z | %22
!mf!!<(! B,A,G, A,2 B, | C2 G,!<)! !breath!A,2!f! G, | C2 ^B, C2 C | DCC (B,2 !breath!=A,) | %26
 G,2 B, B,CC |!>(! D2 C B,2 A, | (B,2 A,-) A,2 B,!>)! |1 G,3- G,2 z :|2 G,3- G,2 z |: %31
[M:2/2]"^dolcissimo" G,A,B,C (B,3 A,) | G,A,B,C (B,3 A,) | (G,F, C2- CB,) A,G, | F,B, B,2 A,3 G, | %35
 !fermata!G,8 :| %36
V:4
 E,2 G, A,2 G, | E,2 E, E,3 | (E,F,)G, (A,G,)G, | E,2 E, E,3 | F,2 E, D,>C,B,, | E,F,G, B,2 B,, | %6
 G,,2 B,, C,2 C, | F,2 F, B,,2 B,, | E,3 E,2 x | D,2 E, F,2 G, | A,A,,B,, C,D,E, | (C,E,)G, C3 | %12
 D,E,F, B,,3 | C,2 D, E,C,A,, | G,,2 A,, B,,2 C, | (D,3 D,2) D, | C,3 x3 | B,,3 E,3 | D,C,B,, C,3 | %19
 E,2 D, C,B,,G,, | A,,2 C, F,2 B,, | E,3 E,2 x | D,2 E, F,2 G, | A,A,,B,, C,D,E, | C,E,G, C2 E, | %25
 D,E,F, B,,3 | C,2 D, E,C,A,, | G,,2 A,, B,,2 C, | A,,3 C,2 B,, |1 E,3- E,2 x :|2 E,3- E,2 x |: %31
[M:2/2] E,F,G,A, B,A,G,B,, | E,F,G,A, B,A,G,B,, | (E,D,C,B,, A,,B,,) C,2 | D,2 E,2 (F,2 B,,)E, | %35
 E,8 :| %36

